X: 100362
T: SIR GARNET'S HORNPIPE
C: By Wm. Findlay
R: hornpipe
B: K\"ohler's Violin Repository, v.3, 1885 p.243 #3
F: http://www.archive.org/details/klersviolinrepos03rugg
Z: 2012 John Chambers <jc:trillian.mit.edu>
M: C
L: 1/8
K: E
(uG>A) |\
(B>c)B>A (G>B)e>g | (f>g)a>f (.c2.a2) | (g>a)b>g (a>g)f>e | (d>e)c>d B2G>A |
(B>c)B>A (G>B)e>g | (f>g)a>f (.c2.a2) | (g>a)b>(g (3a)gf (3Bcd | e2[E2B,2] [E2B,2] :||: (uG>A) |
(3BBB (G>B) e>BG>B | (3BBB (G>B) e>BG>B | (3ccc (A>c) (a>g)f>e | d>ec>d B2G>A |
(3BBB (G>B) e>BG>B | (3BBB (G>B) e>BG>B | (c>a)g>f e>dc>d |\
[1 ue2u[E2B,2] [E2B,2] :|[2 e2 (3(EG)B e2 "_D.C."|]

%%sep 2 1 500

